assets/branding/mv_text_logo_ultraviolet.svg

<svg width="1574" height="255" xmlns="http://www.w3.org/2000/svg"><g fill="none" fill-rule="evenodd"><g fill="#4D61F4"><path d="M408.94 174.099c0 28.81-15.806 46.361-39.319 46.361-24.173 0-39.999-17.551-39.999-46.361V71.808h-36.495v101.63c0 49.341 27.815 81.461 75.171 81.461 47.021 0 76.826-32.783 76.826-81.461V71.808H408.94v102.291M477.197 251.546h36.532V1.031h-36.532zM894.5 72.011l-51.15 131.867-51.495-131.867h-38.967l71.674 179.535h37.228l71.68-179.535H894.5M1327.17 145.383l-21.42-4.838c-13.12-3.111-19.69-10.02-19.69-19.348 0-12.783 12.09-20.727 28.33-20.383 10.02 0 20.04 3.111 29.71 7.946 12.09 5.528 22.11 13.475 26.26 17.275V88.722c-6.22-4.489-28.68-19.691-57.7-19.691-40.07 0-64.26 26.257-64.26 55.277 0 27.292 19.69 40.767 45.61 46.984l20.73 4.838c18.31 4.147 27.29 10.71 27.29 23.147 0 12.439-10.71 24.184-30.4 24.184-12.44 0-24.88-4.147-34.9-9.675-12.09-6.217-21.07-13.818-23.49-16.237l-.69 38.004c2.42 2.417 23.15 19.346 60.11 19.346 41.12 0 66.68-28.33 66.68-57.35 0-25.219-17.62-44.567-52.17-52.166M694.628 251.546h36.534V72.011h-36.534zM699.782.652 686.67 23.363l13.112 22.712h26.226l13.112-22.712L726.008.652h-26.226M220.823 71.808h-.064l-72.265 119.049V71.808h-40.689l-71.998 118.61V71.808H.744v180.04h35.192l77.46-128.065v128.065h35.108c.008-.014.028 0 .028 0h.078l77.354-127.424v127.424h35.09V71.808h-40.231M1437.55 141.012c2.36-6.548 5.69-12.394 9.98-17.456 6.3-7.444 13.72-13.16 22.08-16.99 8.36-3.826 16.92-5.766 25.45-5.766 12.74 0 23.03 2.75 30.59 8.172 6.7 4.812 9.83 10.7 9.83 18.528 0 4.5-1.17 10.312-10.27 15.352-8.83 4.892-19.32 7.371-31.17 7.371-17.1 0-36.07-3.094-56.49-9.211zm115.87 54.006-8.8 7.652c-7.72 6.708-15.84 11.883-24.13 15.382-7.99 3.37-17.81 5.078-29.18 5.078-10.28 0-19.67-2.291-28.68-7.005-8.9-4.644-15.89-11.135-21.38-19.844-4.65-7.385-7.26-15.479-7.92-24.628 8.27 2.479 16.17 4.57 23.61 6.248 12.01 2.714 24.49 4.091 37.1 4.091 12.14 0 23.84-1.943 34.77-5.774 11.46-4.015 20.93-10.019 28.16-17.841 7.88-8.521 11.87-18.909 11.87-30.877 0-11.335-3.47-21.713-10.3-30.845-6.6-8.819-15.75-15.75-27.2-20.602-11.02-4.659-23.23-7.022-36.28-7.022-15.65 0-30.89 3.835-45.3 11.398-14.52 7.622-26.59 18.947-35.87 33.661-9.34 14.797-14.08 32.577-14.08 52.846 0 18.173 4.56 34.194 13.55 47.617 8.91 13.311 20.72 23.51 35.11 30.315 14.07 6.656 29.17 10.031 44.89 10.031 14.7 0 28.05-2.61 39.69-7.76 11.16-4.943 22.06-11.932 32.38-20.773l7.83-6.702-19.84-24.646zM669.339 71.808h-45.996V20.869H586.81v50.939h-45.996v31.66h45.996v148.078h36.533V103.468h45.996v-31.66M1021.56 102.818c26.71 0 43.09 17.99 47.84 42.947h-97.41c5.14-24.957 22.52-42.947 49.57-42.947zm61.43 73.206h22.34c.35-4.577.7-9.503.7-14.079 0-51.384-35.9-92.914-84.47-92.914-49.97 0-87.63 41.53-87.63 92.914 0 51.385 40.82 92.916 96.08 92.916 42.23 0 65.46-20.063 65.46-20.063v-36.954s-25.69 22.877-62.64 22.877c-33.41 0-55.22-18.624-60.88-44.635l111.04-.057v-.005zM1230.12 71.668h-98.73v179.536h36.53V103.329h62.2V71.668"/></g></g></svg>

<?xml version="1.0" encoding="UTF-8"?>
<svg width="1574px" height="255px" viewBox="0 0 1574 255" version="1.1" xmlns="http://www.w3.org/2000/svg" xmlns:xlink="http://www.w3.org/1999/xlink">
    <title>Multiverse_Logo_RGB_Navy Copy</title>
    <g id="Downloads" stroke="none" stroke-width="1" fill="none" fill-rule="evenodd">
        <g id="Multiverse_Logo_RGB_Navy-Copy" fill="#4D61F4">
            <path d="M408.94,174.099 C408.94,202.909 393.134,220.46 369.621,220.46 C345.448,220.46 329.622,202.909 329.622,174.099 L329.622,71.808 L293.127,71.808 L293.127,173.438 C293.127,222.779 320.942,254.899 368.298,254.899 C415.319,254.899 445.124,222.116 445.124,173.438 L445.124,71.808 L408.94,71.808 L408.94,174.099" id="Fill-1"></path>
            <polygon id="Fill-2" points="477.197 251.546 513.729 251.546 513.729 1.031 477.197 1.031"></polygon>
            <polyline id="Fill-3" points="894.5 72.011 843.35 203.878 791.855 72.011 752.888 72.011 824.562 251.546 861.79 251.546 933.47 72.011 894.5 72.011"></polyline>
            <path d="M1327.17,145.383 L1305.75,140.545 C1292.63,137.434 1286.06,130.525 1286.06,121.197 C1286.06,108.414 1298.15,100.47 1314.39,100.814 C1324.41,100.814 1334.43,103.925 1344.1,108.76 C1356.19,114.288 1366.21,122.235 1370.36,126.035 L1370.36,88.722 C1364.14,84.233 1341.68,69.031 1312.66,69.031 C1272.59,69.031 1248.4,95.288 1248.4,124.308 C1248.4,151.6 1268.09,165.075 1294.01,171.292 L1314.74,176.13 C1333.05,180.277 1342.03,186.84 1342.03,199.277 C1342.03,211.716 1331.32,223.461 1311.63,223.461 C1299.19,223.461 1286.75,219.314 1276.73,213.786 C1264.64,207.569 1255.66,199.968 1253.24,197.549 L1252.55,235.553 C1254.97,237.97 1275.7,254.899 1312.66,254.899 C1353.78,254.899 1379.34,226.569 1379.34,197.549 C1379.34,172.33 1361.72,152.982 1327.17,145.383" id="Fill-4"></path>
            <polygon id="Fill-5" points="694.628 251.546 731.162 251.546 731.162 72.011 694.628 72.011"></polygon>
            <polyline id="Fill-6" points="699.782 0.652 686.67 23.363 699.782 46.075 726.008 46.075 739.12 23.363 726.008 0.652 699.782 0.652"></polyline>
            <path d="M220.823,71.808 L220.759,71.808 L148.494,190.857 L148.494,71.808 L107.805,71.808 L35.807,190.418 L35.807,71.808 L0.744,71.808 L0.744,251.848 L35.936,251.848 L113.396,123.783 L113.396,251.848 L148.504,251.848 C148.512,251.834 148.532,251.848 148.532,251.848 L148.61,251.848 L225.964,124.424 L225.964,251.848 L261.054,251.848 L261.054,71.808 L220.823,71.808" id="Fill-7"></path>
            <path d="M1437.55,141.012 C1439.91,134.464 1443.24,128.618 1447.53,123.556 C1453.83,116.112 1461.25,110.396 1469.61,106.566 C1477.97,102.74 1486.53,100.8 1495.06,100.8 C1507.8,100.8 1518.09,103.55 1525.65,108.972 C1532.35,113.784 1535.48,119.672 1535.48,127.5 C1535.48,132 1534.31,137.812 1525.21,142.852 C1516.38,147.744 1505.89,150.223 1494.04,150.223 C1476.94,150.223 1457.97,147.129 1437.55,141.012 Z M1553.42,195.018 L1544.62,202.67 C1536.9,209.378 1528.78,214.553 1520.49,218.052 C1512.5,221.422 1502.68,223.13 1491.31,223.13 C1481.03,223.13 1471.64,220.839 1462.63,216.125 C1453.73,211.481 1446.74,204.99 1441.25,196.281 C1436.6,188.896 1433.99,180.802 1433.33,171.653 C1441.6,174.132 1449.5,176.223 1456.94,177.901 C1468.95,180.615 1481.43,181.992 1494.04,181.992 C1506.18,181.992 1517.88,180.049 1528.81,176.218 C1540.27,172.203 1549.74,166.199 1556.97,158.377 C1564.85,149.856 1568.84,139.468 1568.84,127.5 C1568.84,116.165 1565.37,105.787 1558.54,96.655 C1551.94,87.836 1542.79,80.905 1531.34,76.053 C1520.32,71.394 1508.11,69.031 1495.06,69.031 C1479.41,69.031 1464.17,72.866 1449.76,80.429 C1435.24,88.051 1423.17,99.376 1413.89,114.09 C1404.55,128.887 1399.81,146.667 1399.81,166.936 C1399.81,185.109 1404.37,201.13 1413.36,214.553 C1422.27,227.864 1434.08,238.063 1448.47,244.868 C1462.54,251.524 1477.64,254.899 1493.36,254.899 C1508.06,254.899 1521.41,252.289 1533.05,247.139 C1544.21,242.196 1555.11,235.207 1565.43,226.366 L1573.26,219.664 L1553.42,195.018 L1553.42,195.018 Z" id="Fill-8"></path>
            <polyline id="Fill-9" points="669.339 71.808 623.343 71.808 623.343 20.869 586.81 20.869 586.81 71.808 540.814 71.808 540.814 103.468 586.81 103.468 586.81 251.546 623.343 251.546 623.343 103.468 669.339 103.468 669.339 71.808"></polyline>
            <path d="M1021.56,102.818 C1048.27,102.818 1064.65,120.808 1069.4,145.765 L971.99,145.765 C977.13,120.808 994.51,102.818 1021.56,102.818 Z M1082.99,176.024 L1105.33,176.024 C1105.68,171.447 1106.03,166.521 1106.03,161.945 C1106.03,110.561 1070.13,69.031 1021.56,69.031 C971.59,69.031 933.93,110.561 933.93,161.945 C933.93,213.33 974.75,254.861 1030.01,254.861 C1072.24,254.861 1095.47,234.798 1095.47,234.798 L1095.47,197.844 C1095.47,197.844 1069.78,220.721 1032.83,220.721 C999.42,220.721 977.61,202.097 971.95,176.086 L1082.99,176.029 L1082.99,176.024 L1082.99,176.024 Z" id="Fill-10"></path>
            <polyline id="Fill-11" points="1230.12 71.668 1131.39 71.668 1131.39 251.204 1167.92 251.204 1167.92 103.329 1230.12 103.329 1230.12 71.668"></polyline>
        </g>
        <g id="Multiverse_Notations_RGB_Navy-23"></g>
    </g>
</svg>
